X:1
T:Hound Dog Song
M:4/4
L:1/4
K:Eb
 B G F E| G3/2 G/2 G3/2 G/2| B G F/2F/2 B,| E3/2 E/2 E2| B G F/2F/2 E/2E/2|\
 G3/2 G/2 G3/2 G/2| B/2B/2 G F/2F/2 B,| E3/2 E/2 E2|||
